!!!COM: de Machuat, Guillaume
!!!OTL: Quant j'ay l'espart
!! Guillaume de Machaut, "Quant j'ay l'espart" No. 5 from Volume 5 of
!! "Oeuvres Comple\tes" E/ditions de l'Oiseau-lyre (Monaco) -1977; p.4
**kern	**kern
*M2/4	*M2/4
=1	=1
2A	2e
=2	=2
2G	4r
.	8d
.	8e
=3	=3
4F	8f
.	8r
4G	4e
=4	=4
[2F	8f
.	4e
.	8d
=5	=5
2F]	8a
.	4g
.	8f
=6	=6
4F	8f
.	4e
8E	.
8F	8d
=7	=7
[2G	[2e
=8	=8
2G]	2e]
=9	=9
2G	8g
.	8f
.	4e
=10	=10
[2F	8f
.	8e
.	4d
=11	=11
2F]	8f
.	8e
.	8f
.	8d
=12	=12
2F	8c
.	8d
.	8c
.	8d
=13	=13
4E	8f
.	8e
4F	8d
.	8c
=14	=14
4G	4B
4A	4A
=15	=15
2G	4r
.	4e
=16	=16
2F	8f
.	8e
.	8e
.	8d
=17	=17
2B-	8d
.	8r
.	8f
.	8g
=18	=18
2A	8a
.	8g
.	4f
=19	=19
2G	8g
.	8f
.	4e
=20	=20
[2F	8f
.	8e
.	8f
.	8d
=21	=21
2F]	4d
.	8c
.	8d
=22	=22
[2E	4e
.	8c
.	8d
=23	=23
2E;]	2e;
=24	=24
2A	2c#
=25	=25
[2B-	4r
.	4d
=26	=26
2B-]	8c
.	8d
.	8c
.	8d
=27	=27
2A	4e
.	8e
.	8d
=28	=28
[2D	8f
.	8e
.	8e
.	8d
=29	=29
2D]	2d
=30	=30
4A	4r
4G	8f
.	8g
=31	=31
2F	8a
.	4g
.	8f
=32	=32
2E	8f
.	8g
.	8a
.	8g
=33	=33
2D	4a
.	4d
=34	=34
2D	8a
.	8g
.	8f
.	8e
=35	=35
2F	8e
.	8d
.	8d
.	8c
=36	=36
4A	8c
.	8r
4G	4g
=37	=37
2F	8a
.	8g
.	8g
.	8f
=38	=38
2B-	2f
=39	=39
2A	8a
.	8g
.	4f
=40	=40
2G	8g
.	8f
.	4e
=41	=41
[2F	8f
.	8e
.	4d
=42	=42
2F]	8f
.	8e
.	8f
.	8d
=43	=43
2F	4d
.	8c
.	8d
=44	=44
2E	8f
.	8e
.	8e
.	8d
=45	=45
2D	2d
==	==
*-	*-
